src/svg/24/video_fill_none_24.svg

<?xml version="1.0" encoding="UTF-8"?>
<svg width="24px" height="24px" viewBox="0 0 24 24" version="1.1" xmlns="http://www.w3.org/2000/svg" xmlns:xlink="http://www.w3.org/1999/xlink">
    <!-- Generator: Sketch 50.2 (55047) - http://www.bohemiancoding.com/sketch -->
    <title>video_fill_none_24</title>
    <desc>Created with Sketch.</desc>
    <defs></defs>
    <g id="Page-2" stroke="none" stroke-width="1" fill="none" fill-rule="evenodd">
        <g id="video_fill_none_24">
            <polygon id="Shape" points="0 0 24 0 24 24 0 24"></polygon>
            <path d="M5.8458278,4 L18.1541722,4 C19.4914503,4 19.9763797,4.13923842 20.4652686,4.40069906 C20.9541574,4.66215969 21.3378403,5.04584256 21.5993009,5.53473144 C21.8607616,6.02362033 22,6.50854969 22,7.8458278 L22,16.1541722 C22,17.4914503 21.8607616,17.9763797 21.5993009,18.4652686 C21.3378403,18.9541574 20.9541574,19.3378403 20.4652686,19.5993009 C19.9763797,19.8607616 19.4914503,20 18.1541722,20 L5.8458278,20 C4.50854969,20 4.02362033,19.8607616 3.53473144,19.5993009 C3.04584256,19.3378403 2.66215969,18.9541574 2.40069906,18.4652686 C2.13923842,17.9763797 2,17.4914503 2,16.1541722 L2,7.8458278 C2,6.50854969 2.13923842,6.02362033 2.40069906,5.53473144 C2.66215969,5.04584256 3.04584256,4.66215969 3.53473144,4.40069906 C4.02362033,4.13923842 4.50854969,4 5.8458278,4 Z M5.2819426,7.5 C4.83618323,7.5 4.67454011,7.54641281 4.51157715,7.63356635 C4.34861419,7.7207199 4.2207199,7.84861419 4.13356635,8.01157715 C4.04641281,8.17454011 4,8.33618323 4,8.7819426 L4,15.2180574 C4,15.6638168 4.04641281,15.8254599 4.13356635,15.9884229 C4.2207199,16.1513858 4.34861419,16.2792801 4.51157715,16.3664336 C4.67454011,16.4535872 4.83618323,16.5 5.2819426,16.5 L18.7180574,16.5 C19.1638168,16.5 19.3254599,16.4535872 19.4884229,16.3664336 C19.6513858,16.2792801 19.7792801,16.1513858 19.8664336,15.9884229 C19.9535872,15.8254599 20,15.6638168 20,15.2180574 L20,8.7819426 C20,8.33618323 19.9535872,8.17454011 19.8664336,8.01157715 C19.7792801,7.84861419 19.6513858,7.7207199 19.4884229,7.63356635 C19.3254599,7.54641281 19.1638168,7.5 18.7180574,7.5 L5.2819426,7.5 Z" id="Mask" fill="currentColor"></path>
        </g>
    </g>
</svg>

<svg fill="none" height="24" viewBox="0 0 24 24" width="24" xmlns="http://www.w3.org/2000/svg"><path d="m18.1542 4c1.3373 0 1.8222.13924 2.3111.4007s.8725.64514 1.134 1.13403.4007.97382.4007 2.3111v8.30837c0 1.3373-.1392 1.8222-.4007 2.3111s-.6451.8725-1.134 1.134-.9738.4007-2.3111.4007h-12.30837c-1.33728 0-1.82221-.1392-2.3111-.4007s-.87257-.6451-1.13403-1.134-.4007-.9738-.4007-2.3111v-8.30837c0-1.33728.13924-1.82221.4007-2.3111s.64514-.87257 1.13403-1.13403.97382-.4007 2.3111-.4007zm.5639 3.5h-13.43616c-.44576 0-.6074.04641-.77036.13357-.16297.08715-.29086.21504-.37801.37801-.08716.16296-.13357.3246-.13357.77036v6.43616c0 .4457.04641.6074.13357.7703.08715.163.21504.2909.37801.378.16296.0872.3246.1336.77036.1336h13.43616c.4457 0 .6074-.0464.7703-.1336.163-.0871.2909-.215.378-.378.0872-.1629.1336-.3246.1336-.7703v-6.43616c0-.44576-.0464-.6074-.1336-.77036-.0871-.16297-.215-.29086-.378-.37801-.1629-.08716-.3246-.13357-.7703-.13357z" fill="currentColor"/></svg>
